assets/img/headset.svg

<svg width="55" height="55" viewBox="0 0 55 55" fill="none" xmlns="http://www.w3.org/2000/svg">
<path d="M27.5 52.7083V48.125H43.5417V45.8333H34.375V27.5H43.5417V25.2083C43.5417 20.7778 41.9757 16.9965 38.8438 13.8646C35.7118 10.7326 31.9306 9.16666 27.5 9.16666C23.0695 9.16666 19.2882 10.7326 16.1563 13.8646C13.0243 16.9965 11.4583 20.7778 11.4583 25.2083V27.5H20.625V45.8333H11.4583C10.1979 45.8333 9.11855 45.3842 8.22021 44.4858C7.32188 43.5875 6.87348 42.5089 6.875 41.25V25.2083C6.875 22.3819 7.41966 19.7175 8.50896 17.215C9.59827 14.7125 11.0779 12.5262 12.9479 10.6562C14.8194 8.78472 17.0065 7.3043 19.509 6.215C22.0115 5.12569 24.6751 4.5818 27.5 4.58333C30.3264 4.58333 32.9908 5.12798 35.4933 6.21729C37.9958 7.3066 40.1821 8.78625 42.0521 10.6562C43.9236 12.5278 45.404 14.7148 46.4933 17.2173C47.5826 19.7198 48.1265 22.3835 48.125 25.2083V48.125C48.125 49.3854 47.6758 50.4648 46.7775 51.3631C45.8792 52.2615 44.8006 52.7099 43.5417 52.7083H27.5Z" fill="#0074E8"/>
</svg>

<svg width="55" height="55" fill="none" xmlns="http://www.w3.org/2000/svg"><path d="M27.5 52.708v-4.583h16.042v-2.292h-9.167V27.5h9.167v-2.292c0-4.43-1.566-8.211-4.698-11.343-3.132-3.132-6.913-4.698-11.344-4.698-4.43 0-8.212 1.566-11.344 4.698-3.132 3.132-4.698 6.913-4.698 11.343V27.5h9.167v18.333h-9.167c-1.26 0-2.34-.449-3.238-1.347-.898-.898-1.347-1.977-1.345-3.236V25.208c0-2.826.545-5.49 1.634-7.993 1.09-2.502 2.569-4.689 4.439-6.559 1.871-1.871 4.058-3.352 6.561-4.441 2.503-1.09 5.166-1.633 7.991-1.632 2.826 0 5.49.545 7.993 1.634 2.503 1.09 4.69 2.57 6.56 4.44 1.87 1.87 3.351 4.058 4.44 6.56 1.09 2.503 1.633 5.167 1.632 7.991v22.917c0 1.26-.45 2.34-1.347 3.238-.899.898-1.977 1.347-3.236 1.345H27.5Z" fill="#0074E8"/></svg>
